img/icon-3.svg

<svg xmlns="http://www.w3.org/2000/svg" width="55" height="50" viewBox="0 0 55 50">
  <g fill="none">
    <path fill="#3D3F5B" d="M27.4539,49.2883629 C27.018,49.2883629 26.6136,49.064497 26.3867,48.6974359 C25.77235,47.7037968 11.34095,24.2668639 11.34095,15.9214004 C11.34095,7.15941815 18.56915,0.0310157791 27.4539,0.0310157791 C36.33855,0.0310157791 43.56665,7.15941815 43.56665,15.9214004 C43.56665,24.2668639 29.13545,47.7037968 28.52125,48.6974359 C28.2942,49.064497 27.8898,49.2883629 27.4539,49.2883629 Z M27.4539,2.4964497 C19.9477,2.4964497 13.84085,8.5188856 13.84085,15.9214004 C13.84085,22.3475838 24.0743,39.9966469 27.4539,45.6495069 C30.83335,39.9966963 41.0667,22.3475838 41.0667,15.9214004 C41.0667,8.5188856 34.96,2.4964497 27.4539,2.4964497 Z"/>
    <path fill="#028DFF" fill-opacity=".76" d="M53.75005 49.9689349L1.24995 49.9689349C.5596 49.9689349 0 49.4170118 0 48.7362426 0 48.0554734.5596 47.5035503 1.24995 47.5035503L53.75 47.5035503C54.44045 47.5035503 54.99995 48.0554734 54.99995 48.7362426 54.99995 49.4170118 54.4405 49.9689349 53.75005 49.9689349zM27.4539 24.7662722C22.4271 24.7662722 18.33755 20.7332347 18.33755 15.775789 18.33755 10.8183432 22.42705 6.7852071 27.4539 6.7852071 32.48075 6.7852071 36.5702 10.8183925 36.5702 15.775789 36.5702 20.7331854 32.4807 24.7662722 27.4539 24.7662722zM27.4539 9.25069034C23.80565 9.25069034 20.8375 12.17786 20.8375 15.7758383 20.8375 19.3737179 23.80565 22.3008876 27.4539 22.3008876 31.10215 22.3008876 34.0703 19.3737179 34.0703 15.7758383 34.0703 12.17786 31.10215 9.25069034 27.4539 9.25069034z"/>
  </g>
</svg>

<svg xmlns="http://www.w3.org/2000/svg" width="55" height="50"><g fill="none"><path fill="#3D3F5B" d="M27.454 49.288c-.436 0-.84-.224-1.067-.59-.615-.994-15.046-24.431-15.046-32.777 0-8.762 7.228-15.89 16.113-15.89s16.113 7.128 16.113 15.89c0 8.346-14.432 31.783-15.046 32.776a1.253 1.253 0 0 1-1.067.591zm0-46.792c-7.506 0-13.613 6.023-13.613 13.425 0 6.427 10.233 24.076 13.613 29.729 3.38-5.653 13.613-23.302 13.613-29.729 0-7.402-6.107-13.425-13.613-13.425z"/><path fill="#028DFF" fill-opacity=".76" d="M53.75 49.969H1.25c-.69 0-1.25-.552-1.25-1.233 0-.68.56-1.232 1.25-1.232h52.5c.69 0 1.25.551 1.25 1.232 0 .681-.56 1.233-1.25 1.233zM27.454 24.766c-5.027 0-9.116-4.033-9.116-8.99 0-4.958 4.09-8.99 9.116-8.99 5.027 0 9.116 4.032 9.116 8.99 0 4.957-4.09 8.99-9.116 8.99zm0-15.515c-3.648 0-6.617 2.927-6.617 6.525 0 3.598 2.969 6.525 6.617 6.525s6.616-2.927 6.616-6.525c0-3.598-2.968-6.525-6.616-6.525z"/></g></svg>
